X: 25829
T: Master Crowley's
R: reel
M: 4/4
K: Edorian
|:BEE2 BEFE|D2A^G ADFD|BEE2 DGBG|FAdA FEE2|
BEE2 BEFE|EDBD AAAz|BEE2 DGBG|FADA FEE2:|
|:eb^ga f=geg|fdad bzaf|ebge f2fe|dbaf fee2|
eb^ga f=geg|fdad bzaf|efga bzgb|afda fee2:|

